X:1
T:Hallelujah unto Jesus
T:Hallelujah unto Jesus
T:Howard E. Smith
T:Mary Maria Kiernan Kennedy (1842-1900)
T:Public Domain Courtesy of the Cyber Hymnal™
C:Howard E. Smith
Z:Public Domain
Z:Courtesy of the Cyber Hymnal™
%%score ( 1 2 ) ( 3 4 )
L:1/8
Q:1/4=110
M:4/4
K:D
V:1 treble 
V:2 treble 
V:3 bass 
V:4 bass 
V:1
 d>d | (cBAG) F2 [CE]>[CE] | D2 [DF]4 [FA]>[FA] | [GB]2 [Bd]2 [Ac]2 [GB]2 | [FA]6 [DF]>[DF] | %5
w: 1.~Hal- le-|lu- * * * jah un- to|Je- sus! Now He|lives to die no|more; Let all|
w: 2.~Hal- le-|lu- * * * jah un- to|Je- sus! Who for|us once bled, and|died, He is|
w: 3.~Hal- le-|lu- * * * jah un- to|Je- sus! Bless- èd|first- fruits of the|dead; He our|
w: 4.~Hal- le-|lu- * * * jah un- to|Je- sus! Death is|robbed now of its|sting; And the|
 [EG]2 [GB]2 [FA]2 [EG]2 | [DF]2 [FA]4 [FA]>[FA] | [GB]2 [Ge]2 [Fd]2 c2 | [Fd]6 ||"^Refrain" d>d | %10
w: na- tions sing His|prais- es, Glad- ly|sing them o’er and|o’er.||
w: now o’er death, the|vic- tor, Hail Him|king the Cru- ci-|fied.|Hal- le-|
w: re- sur- rec- tion|sure- ty, Lives for|us our ris- en|king.||
w: tomb for us is|light- ed, Hal- le-|lu- jah to our|king.||
 (cBAG) F2 B>B | (AGFE) D2 [DF]>[DF] | [CE]2 [EA]2 [^GB]2 [Ge]2 | [Ge]6 A>A | %14
w: ||||
w: lu- * * * jah! Hal- le-|lu- * * * jah! Hal- le-|lu- jah to our|king! From the|
w: ||||
w: ||||
 [Ad]2 [Gd]2 [Fd]2 [Ac]2 | [Ac]2 [GB]4 d>d | (cBAG) E2 [CA]2 | D6 |] %18
w: ||||
w: tomb to- day He’s|ris- en, Hal- le-|lu- * * * jah we’ll|sing.|
w: ||||
w: ||||
V:2
 x2 | x4 F2 x2 | D2 x6 | x8 | x8 | x8 | x8 | x6 (EG) | x6 || x2 | x4 F2 B>B | x8 | x8 | x6 A>A | %14
 x8 | x6 d>d | x4 E2 x2 | D6 |] %18
V:3
 D>D | (CB,A,G,) F,2 [A,,G,]>[A,,G,] | [D,F,]2 [D,A,]4 [D,D]>[D,D] | [G,D]2 [G,D]2 D2 D2 | %4
 D6 [D,A,]>[D,A,] | [A,,A,]2 [A,,A,]2 A,2 A,2 | [D,A,]2 [D,A,]4 [D,D]>[D,D] | %7
 [G,D]2 [G,B,]2 A,2 [A,,A,]2 | [D,A,]6 || D>D | (CB,A,G,) F,2 B,>B, | %11
 (A,G,F,E,) D,2 [D,A,]>[D,A,] | [E,A,]2 [E,C]2 [E,E]2 [E,D]2 | [A,C]6 [A,C]>[G,C] | %14
 [F,D]2 [E,A,]2 [D,A,]2 [F,D]2 | [G,D]2 [G,D]4 D>D | (CB,A,G,) E,2 [A,,G,]2 | [D,F,]6 |] %18
V:4
 x2 | x4 F,2 x2 | x8 | x4 (G,A,) (B,C) | D6 x2 | x4 (A,,B,,) (C,A,,) | x8 | x4 A,2 x2 | x6 || D>D | %10
 x4 F,2 B,>B, | x8 | x8 | x8 | x8 | x6 D>D | x4 E,2 x2 | x6 |] %18

